X: 477
T: Bûselik Sazsemâîsi
C: Nefirî Behram Ağa
O: Turkey
F: http://compmusic.upf.edu/node/140
N: buselik--sazsemaisi--aksaksemai----nefiri_behram_aga
N: makam= buselik
N: form= sazsemaisi
N: usul= aksaksemai = 10/8
M: 10/8
L: 1/16
K: C    
Q: 1/4=120
%%MIDI tuningsystem comma53
c4 d2e3fef efed c2B2  | c4 G2AB GABc ABc4z2  | 
w:   |   | 
BcBA B2c2 d2ef edcd e2z2  | cdcB cBA4cB ABc4z2  | 
w:   |   | 
c4 c2cd cBBA GAB4z2  | d2ef edc3BcB ced2 c2B2  | 
w:   |   | 
cBcd cBA^G A2Bc Bcd2 e2d2  | gfed c2B2 ABcB A^GA4z2  | 
w:   |   | 
d2ef edc3BcB ced2 c2B2  | cBcd cBA^G A2Bc Bcd2 e2d2  | 
w:   |   | 
gfed c2B2 ABcB A^GA4z2  | A4 (3dcBc2 B2A2 ^G2F2 G2A2  | 
w:   |   | 
B4 ABcd cBBA ^GAB4z2  | A4 AAAB A^GF2 G2A4B2  | 
w:   |   | 
cdcB cBc4de dcd2 e2z2  | dcBc B2A2 c2BA ^GAB4z2  | 
w:   |   | 
d2ef edc3BcB ced2 c2B2  | cBcd cBA^G A2Bc Bcd2 e2d2  | 
w:   |   | 
gfed c2B2 ABcB A^GA4z2  | d2ef edc3BcB ced2 c2B2  | 
w:   |   | 
cBcd cBA^G A2Bc Bcd2 e2d2  | gfed c2B2 ABcB A^GA4z2  | 
w:   |   | 
A4 g^fg3ff/e/f/g/ fee4z2  | abag ^fed4ef defa g2f2  | 
w:   |   | 
e2f2 e2d2 cBA^G FGA4B2  | c2B2 d2cB A2BA ^GAB4z2  | 
w:   |   | 
A4 g^fg3ff/e/f/g/ fee4z2  | abag ^fed4ef defa g2f2  | 
w:   |   | 
e2f2 e2d2 cBA^G FGA4B2  | c2B2 d2cB A2BA ^GAB4z2  | 
w:   |   | 
d2ef edc3BcB ced2 c2B2  | cBcd cBA^G A2Bc Bcd2 e2d2  | 
w:   |   | 
gfed c2B2 ABcB A^GA4z2  | d2ef edc3BcB ced2 c2B2  | 
w:   |   | 
cBcd cBA^G A2Bc Bcd2 e2d2  | gfed c2B2 ABcB A^GA4z2  | 
w:   |   | 
A2B2 A2G2 A2G2 A2B2 c4  | z4 c2d2 c2B2 c2B2 c2d2  | \
w:   |   | 
e4 z4 e2f2 e2f2 e2d2  | 
w:   | 
c2B2 A6^G2 A4 G2A2  | B4 A2B2 c4 z4 c2B2  | \
w:   |   | 
c2d2 e2d2 e2d2 c2B2 A4  | 
w:   | 
d2ef e2d2 c2B2 A2^G2 ^A4  | z4 A2B2 A2G2 A2G2 A2B2  | \
w:   |   | 
c4 z4 c2d2 c2B2 c2B2  | 
w:   | 
c2d2 e4 z4 e2f2 e2f2  | e2d2 c2B2 A6^G2 A4  | \
w:   |   | 
^G2A2 B4 A2B2 c4 z4  | 
w:   | 
c2B2 c2d2 e2d2 e2d2 c2B2  | A4 d2ef e2d2 c2B2 A2^G2  | \
w:   |   | 
^A4 z4 d2ef edc3BcB  | 
w:   | 
ced2 c2B2 cBcd cBA^G A2Bc  | Bcd2 e2d2 gfed c2B2 ABcB  | 
w:   |   | 
A^GA4z2 d2ef edc3BcB  | ced2 c2B2 cBcd cBA^G A2Bc  | 
w:   |   | 
Bcd2 e2d2 gfed c2B2 ABcB  | A^GA4z2 |
w:   |   | 


